X:1
T:Title
%%score { ( 1 4 ) | ( 2 3 ) }
L:1/8
M:4/4
K:Db
V:1 treble nm="Grand Piano"
V:4 treble 
V:2 treble 
V:3 treble 
V:1
 z4 z[Q:1/4=86] ABA | [DF]3 [EG] [_F=G]A[_GB]A | [EG]4- [EG]GGA | [Ac]3 [GB] [FA]G[GB]A | %4
 [DF]4- [DF]ABc | [Fd]4- [Fd]d[Gc]_c | [GB]4- [GB]Bcd | dA=GA [_GB]2 [_Fc]2 | %8
[M:11/16] [Fd]/-[Fd]/-[Fd]/-[Fd]/-[Fd]/-[Fd]/-[Fd]/-[Fd]-<[Fd] |[M:3/8][K:bass] A,,B,,C, | %10
[M:4/4] z[K:treble] F_FG =F[K:bass]D,E,F, | z[K:treble] B=Ac BBAB | c6[K:bass][K:treble] z2 | %13
 FFFF A[K:bass]A,,B,,C, | z[K:treble] F_FG =F[K:bass]D,E,F, | z[K:treble] B=Ac BBcd | %16
 [Fd]4- [Fd][DF][CF][CE] |[M:11/16] D/-D/-D/-D/-D/-D/-D/-D-<D |] %18
V:2
 z4 z FGF | z4 A,2[K:treble] D2 | z4 C2[K:treble] z2 | z4 C2[K:treble] A,2 | %4
 D,,A,,D,F, A,[K:treble]FGE | D,,A,,D,F, z F z A | G,,D,G,B,[K:treble] D[D_F][CF][B,F] | %7
 [A,F][DF][B,_F][A,=F][K:bass] A,,A,A,A,, |[M:11/16] D,,A,,D,A,,D,3/2 |[M:3/8] z3 | %10
[M:4/4] z [A,D][=G,D][B,D] .[A,D]2 z2 | z[K:treble] [DG][CG][EG] [DG]DCD | E6[K:bass] z2 | %13
 [D,A,D][D,A,D][=D,A,_C][D,A,C] .[E,A,=C]2 z2 | z [A,D][=G,D][B,D] .[A,D]2 z2 | %15
 z[K:treble] [DG][CG][EG] [DG][K:bass][G,D][G,CE][=G,B,_F] | z A,3- A, z z2 | %17
[M:11/16] [D,F,][D,F,][D,G,][D,G,][D,F,]3/2 |] %18
V:3
 x8 | D,,A,,D,F, z[K:treble] F z F | A,,C,E,A, z[K:treble] EEF | A,,C,E,A, z[K:treble] E z F | %4
 x5[K:treble] x3 | z4 A,2 D,2 | x4[K:treble] x4 | x4[K:bass] x4 |[M:11/16] x11/2 |[M:3/8] x3 | %10
[M:4/4] x8 | x[K:treble] x7 | z[K:bass] A,,C,E, z [G,A,C][F,A,D][E,A,C] | x8 | x8 | %15
 x[K:treble] x4[K:bass] x3 | .A,2 F,D, A,,[A,,A,][A,,A,][A,,G,] |[M:11/16] x11/2 |] %18
V:4
 x8 | x8 | x8 | x8 | x8 | x8 | x8 | x8 |[M:11/16] x11/2 |[M:3/8][K:bass] x3 | %10
[M:4/4] D,6[K:treble][K:bass] z2 | G,6[K:treble] z2 | z[K:bass] A,A,A, A,E[K:treble]FG | %13
 x5[K:bass] x3 | D,6[K:treble][K:bass] z2 | G,6[K:treble] z2 | x8 |[M:11/16] z A,B,B,A,3/2 |] %18

